packages/core/src/svgs/bepro.svg

<svg width="24" height="24" viewBox="0 0 24 24" fill="none" xmlns="http://www.w3.org/2000/svg">
<g clip-path="url(#clip0_31_6966)">
<path d="M0 0H24V24H0V0Z" fill="url(#paint0_linear_31_6966)"/>
<path d="M12.0002 18.8574C15.7873 18.8574 18.8574 15.7873 18.8574 12.0002C18.8574 8.21311 15.7873 5.14307 12.0002 5.14307C8.21311 5.14307 5.14307 8.21311 5.14307 12.0002C5.14307 15.7873 8.21311 18.8574 12.0002 18.8574Z" fill="white"/>
<path d="M12.0001 5.14268C13.8188 5.14268 15.5629 5.86513 16.8489 7.15109C18.1348 8.43706 18.8573 10.1812 18.8573 11.9998C18.8573 13.8185 18.1348 15.5626 16.8489 16.8486C15.5629 18.1345 13.8188 18.857 12.0001 18.857C10.8461 18.8579 9.71051 18.5674 8.6987 18.0124C7.68688 17.4574 6.83162 16.6558 6.21224 15.6821C5.59285 14.7084 5.22941 13.594 5.15563 12.4423C5.08184 11.2906 5.30009 10.1389 5.79014 9.09411C5.90185 9.78384 6.25486 10.4115 6.78625 10.8652C7.31764 11.3188 7.99287 11.5691 8.69157 11.5713H9.42872V10.2855H8.68729C7.903 10.2984 7.23443 9.44125 7.22157 8.66554V8.6484C7.213 7.85126 7.903 7.2984 8.67872 7.28554C9.47586 7.27697 10.2644 7.87268 10.2816 8.65697V13.037C10.2816 14.627 11.2459 15.8655 12.853 15.857C14.5159 15.8527 15.853 14.5198 15.853 12.9427C15.8475 12.584 15.7706 12.2301 15.6268 11.9015C15.483 11.5729 15.2751 11.2762 15.0154 11.0289C14.7556 10.7815 14.4492 10.5883 14.114 10.4607C13.7788 10.3331 13.4215 10.2735 13.063 10.2855H12.4287V11.5713H13.0673C13.4563 11.5774 13.8284 11.7314 14.1078 12.0021C14.3873 12.2728 14.5531 12.6398 14.5716 13.0284V13.0455C14.5592 13.4411 14.3985 13.8176 14.1214 14.1003C13.8444 14.3829 13.4711 14.551 13.0759 14.5713C12.3173 14.5755 11.5844 13.8084 11.5716 13.037V8.65697C11.5716 7.85983 11.3359 7.16126 10.7659 6.59126C10.3322 6.16198 9.77719 5.87624 9.17586 5.77268C10.0578 5.35248 11.0233 5.13711 12.0001 5.14268Z" fill="#4250E4"/>
</g>
<defs>
<linearGradient id="paint0_linear_31_6966" x1="4.46571" y1="4.16143" x2="29.2071" y2="32.58" gradientUnits="userSpaceOnUse">
<stop stop-color="#1A1E21"/>
<stop offset="1" stop-color="#06060A"/>
</linearGradient>
<clipPath id="clip0_31_6966">
<rect width="24" height="24" fill="white"/>
</clipPath>
</defs>
</svg>

<svg xmlns="http://www.w3.org/2000/svg" width="24" height="24" fill="none" viewBox="0 0 24 24"><g clip-path="url(#a)"><path fill="url(#b)" d="M0 0h24v24H0z"/><path fill="#fff" d="M12 18.857a6.857 6.857 0 1 0 0-13.714 6.857 6.857 0 0 0 0 13.714"/><path fill="#4250E4" d="M12 5.143A6.857 6.857 0 1 1 8.7 18.013 6.853 6.853 0 0 1 5.79 9.093a2.95 2.95 0 0 0 2.902 2.477h.737v-1.285h-.742c-.784.012-1.453-.845-1.465-1.62v-.018c-.009-.797.681-1.35 1.457-1.362.797-.009 1.585.587 1.603 1.371v4.38c0 1.59.964 2.829 2.571 2.82 1.663-.004 3-1.337 3-2.914a2.7 2.7 0 0 0-2.79-2.657h-.634v1.285h.638a1.53 1.53 0 0 1 1.505 1.457v.018a1.577 1.577 0 0 1-1.496 1.525c-.759.005-1.492-.763-1.504-1.534v-4.38c0-.797-.236-1.496-.806-2.066a2.98 2.98 0 0 0-1.59-.818A6.5 6.5 0 0 1 12 5.143"/></g><defs><linearGradient id="b" x1="4.466" x2="29.207" y1="4.161" y2="32.58" gradientUnits="userSpaceOnUse"><stop stop-color="#1A1E21"/><stop offset="1" stop-color="#06060A"/></linearGradient><clipPath id="a"><path fill="#fff" d="M0 0h24v24H0z"/></clipPath></defs></svg>
